dist/svg/bug.svg

<svg width="16" height="16" viewBox="0 0 16 16" fill="rgb(34, 34, 34)" xmlns="http://www.w3.org/2000/svg"><title>bug</title><path d="M16 7.5C16 7.776 15.776 8 15.5 8H13V10C13 10.002 13 10.005 13 10.008C13 10.958 12.734 11.845 12.272 12.6L12.284 12.578L14.853 15.147C14.946 15.238 15.003 15.364 15.003 15.504C15.003 15.78 14.779 16.004 14.503 16.004C14.363 16.004 14.237 15.947 14.146 15.854L11.678 13.386C10.984 14.139 10.067 14.677 9.03202 14.894L8.99902 14.9V8H6.99902V14.9C5.93102 14.677 5.01402 14.139 4.32302 13.389L4.32002 13.385L1.85202 15.853C1.76202 15.941 1.63802 15.996 1.50202 15.996C1.22602 15.996 1.00202 15.772 1.00202 15.496C1.00202 15.36 1.05702 15.236 1.14502 15.146L3.71402 12.577C3.26502 11.844 2.99902 10.956 2.99902 10.007C2.99902 10.004 2.99902 10.002 2.99902 9.999V7.999H0.499023C0.223023 7.999 -0.000976562 7.775 -0.000976562 7.499C-0.000976562 7.223 0.223023 6.999 0.499023 6.999H2.99902V5.999H12.999V6.999H15.499C15.775 6.999 15.999 7.223 15.999 7.499L16 7.5ZM4.01002 4.717C4.00302 4.81 4.00002 4.905 4.00002 5H12C12 4.905 11.996 4.811 11.99 4.717L14.854 1.853C14.947 1.762 15.004 1.636 15.004 1.496C15.004 1.22 14.78 0.996002 14.504 0.996002C14.364 0.996002 14.238 1.053 14.147 1.146L11.733 3.56C11.138 2.049 9.69202 1 8.00002 1C6.30802 1 4.86202 2.05 4.27702 3.533L4.26802 3.56L1.85402 1.146C1.76402 1.058 1.64002 1.003 1.50402 1.003C1.22802 1.003 1.00402 1.227 1.00402 1.503C1.00402 1.639 1.05902 1.763 1.14702 1.853L4.01002 4.717Z" fill="rgb(34, 34, 34)" fill-opacity="1.00"/></svg>

<!-- Generated by Trend Micro Style Portal -->
<svg version="1.1" xmlns="http://www.w3.org/2000/svg" width="16" height="16" viewBox="0 0 16 16">
  <title>bug</title>
  <path fill="rgb(34,34,34)" d="M16 7.5c0 0 0 0 0 0 0 0.276-0.224 0.5-0.5 0.5-0 0-0 0-0 0h-2.5v2c0 0.002 0 0.005 0 0.008 0 0.95-0.266 1.837-0.728 2.592l0.012-0.022 2.569 2.569c0.093 0.091 0.15 0.217 0.15 0.357 0 0.276-0.224 0.5-0.5 0.5-0.14 0-0.266-0.057-0.357-0.15l-2.468-2.468c-0.694 0.753-1.611 1.291-2.646 1.508l-0.033 0.006v-6.9h-2v6.9c-1.068-0.223-1.985-0.761-2.676-1.511l-0.003-0.004-2.468 2.468c-0.090 0.088-0.214 0.143-0.35 0.143-0.276 0-0.5-0.224-0.5-0.5 0-0.136 0.055-0.26 0.143-0.35l2.569-2.569c-0.449-0.733-0.715-1.621-0.715-2.57 0-0.003 0-0.005 0-0.008v0-2h-2.5c-0.276 0-0.5-0.224-0.5-0.5s0.224-0.5 0.5-0.5v0h2.5v-1h10v1h2.5c0 0 0 0 0 0 0.276 0 0.5 0.224 0.5 0.5 0 0 0 0 0 0v-0zM4.010 4.717c-0.007 0.093-0.010 0.188-0.010 0.283h8c0-0.095-0.004-0.189-0.010-0.283l2.864-2.864c0.093-0.091 0.15-0.217 0.15-0.357 0-0.276-0.224-0.5-0.5-0.5-0.14 0-0.266 0.057-0.357 0.15l-2.414 2.414c-0.595-1.511-2.041-2.56-3.733-2.56s-3.138 1.050-3.723 2.533l-0.009 0.027-2.414-2.414c-0.090-0.088-0.214-0.143-0.35-0.143-0.276 0-0.5 0.224-0.5 0.5 0 0.136 0.055 0.26 0.143 0.35l-0-0z"></path>
</svg>
